kiosk-igrinskij/images/d80566e625bfe39388a83145480ef6ba.svg

<svg fill="none" height="13" viewBox="0 0 16 13" width="16" xmlns="http://www.w3.org/2000/svg"><g fill="#f1e9dd"><path d="m15.6825 2.53169-2.6327-2.410459c-.1058-.0787695-.2344-.121231-.3667-.121231h-9.37233c-.13231 0-.26092.0424615-.36739.121231l-2.69538 2.461539s-.248.15754-.248.49415v1.23077c0 .33908.276308.61539.615385.61539l.000601 6.76932c0 .3391.276307.6154.615384.6154h.61538c.33908 0 .61539-.2763.61539-.6154v-6.76932h11.07756v6.76932c0 .3391.2763.6154.6153.6154h.6154c.3391 0 .6154-.2763.6154-.6154v-6.76932c.3385-.00066.6142-.27671.6142-.61539v-1.23077c0-.32677-.3175-.54523-.3175-.54523z"/><path d="m12.3071 9.23092c-.3391 0-.6154-.27631-.6154-.61539v-3.07692h1.2308v3.07692c0 .33908-.2763.61539-.6154.61539z"/><path d="m3.07692 8.61553c0 .33908.27631.61539.61539.61539.33907 0 .61538-.27631.61538-.61539v-3.07692h-1.23077z"/></g></svg>

<svg width="16" height="13" viewBox="0 0 16 13" fill="none" xmlns="http://www.w3.org/2000/svg">
<path d="M15.6825 2.53169L13.0498 0.121231C12.944 0.0424615 12.8154 0 12.6831 0H3.31077C3.17846 0 3.04985 0.0424615 2.94338 0.121231L0.248 2.58277C0.248 2.58277 0 2.74031 0 3.07692V4.30769C0 4.64677 0.276308 4.92308 0.615385 4.92308L0.615986 11.6924C0.615986 12.0315 0.892293 12.3078 1.23137 12.3078H1.84675C2.18583 12.3078 2.46214 12.0315 2.46214 11.6924V4.92308H13.5397V11.6924C13.5397 12.0315 13.816 12.3078 14.155 12.3078H14.7704C15.1095 12.3078 15.3858 12.0315 15.3858 11.6924V4.92308C15.7243 4.92242 16 4.64637 16 4.30769V3.07692C16 2.75015 15.6825 2.53169 15.6825 2.53169Z" fill="#F1E9DD"/>
<path d="M12.3071 9.23092C11.968 9.23092 11.6917 8.95461 11.6917 8.61553V5.53861H12.9225V8.61553C12.9225 8.95461 12.6462 9.23092 12.3071 9.23092Z" fill="#F1E9DD"/>
<path d="M3.07692 8.61553C3.07692 8.95461 3.35323 9.23092 3.69231 9.23092C4.03138 9.23092 4.30769 8.95461 4.30769 8.61553V5.53861H3.07692V8.61553Z" fill="#F1E9DD"/>
</svg>
